!!!COM: Kabua, Amata
!!!CDT: 1928-1995
!!!OTL: National Anthem, Marshal Islands - Forever Marshal Islands
!!!ENC: Davis, Matthew J.
!!Vocal Line Only
**kern
*clefG2
*k[f#]
*G:
*M4/4
=1-
4d
2b
4a
=2
2g
4f#
[4f#
=3
4f#]
4e
2e
=4
8e
8e
2cc#
4b
=5
2a
4g
[4g
=6
4g]
4f#
2f#
=7
8d
8d
2dd
4dd
=8
4dd
4cc
4b
[4a
=9
4a]
4b
2cc
=10
8e
8f#
2g
4f#
=11
4g
4a
4b
[4b
=12
4b]
4a
2a
=13
8d
8d
2b
4a
=14
2g
4f#
[4f#
=15
4f#]
4e
2e
=16
=16
8e
8e
2cc
4b
=17
2a
4g
[4g
=18
4g]
4f#
2f#
=19
8d
8d
2dd
4dd
=20
4dd
4cc
4b
[4a
=21
4a]
4b
[2g
=22
4.g]
4r
=23
8e
8e
4.d
8f#
4e
=24
4d
4e
4.e
8d
=25
4g
4d
4e
4d
=26
16e
16f#
8g
2b
4a
=27
1g
=28
8d
8d
2b
4a
=29
2g
4f#
[4f#
=30
4f#]
4e
2e
=31
8e
8e
2cc
4b
=32
2a
4g
[4g
=33
4g]
4f#
2f#
=34
8d
8d
2dd
4dd
=35
4dd
4cc
4b
[4a
=36
4a]
4b
[2g
=37
2.g]
4r
=38
8e
8e
4.d
8f#
4e
=39
4d
4e
4.e
8d
=40
4g
4d
4e
4d
=41
16e
16f#
8g
2dd
4f#
=42
1g
==|!
*-
